svgs/regular/face-thinking.svg

<svg xmlns="http://www.w3.org/2000/svg" viewBox="0 0 512 512"><!--! Font Awesome Pro 6.5.1 by @fontawesome - https://fontawesome.com License - https://fontawesome.com/license (Commercial License) Copyright 2023 Fonticons, Inc. --><path d="M256 464c114.9 0 208-93.1 208-208s-93.1-208-208-208S48 141.1 48 256c0 17.7 2.2 34.8 6.4 51.2C40.8 317.4 32 333.7 32 352v28C11.6 343.3 0 301 0 256C0 114.6 114.6 0 256 0S512 114.6 512 256s-114.6 256-256 256c-10.6 0-21.1-.6-31.4-1.9c4-5.7 7.3-12 9.8-18.8l10.1-27.7c3.8 .2 7.7 .3 11.6 .3zm43-158.9c-9.9-2-20.5-1.3-30.7 2.5L237.9 319l-65.5-15.4c-8.6-2-13.9-10.6-11.9-19.2s10.6-13.9 19.2-11.9l97.1 22.8c8.2 1.9 15.7 5.3 22.3 9.8zM144.4 192a32 32 0 1 1 64 0 32 32 0 1 1 -64 0zm192-16a32 32 0 1 1 0 64 32 32 0 1 1 0-64zm-120-31.2c-20.5-17.6-49.9-20.4-73.4-7l-7.1 4c-7.7 4.4-17.4 1.7-21.8-6s-1.7-17.4 6-21.8l7.1-4c35.2-20.1 79.3-15.9 110.1 10.5l13.2 11.3c6.7 5.8 7.5 15.9 1.7 22.6s-15.9 7.5-22.6 1.7l-13.2-11.3zM112 352v48.4l167.6-62.8c12.4-4.7 26.2 1.6 30.9 14s-1.6 26.2-14 30.9L230.9 407c-.1 .4-.3 .8-.4 1.2l-26.3 72.2c-6.9 19-24.9 31.6-45.1 31.6H112c-26.5 0-48-21.5-48-48V352c0-13.3 10.7-24 24-24s24 10.7 24 24z"/></svg>

<svg xmlns="http://www.w3.org/2000/svg" viewBox="0 0 512 512"><!--! Font Awesome Pro 6.1.1 by @fontawesome - https://fontawesome.com License - https://fontawesome.com/license (Commercial License) Copyright 2022 Fonticons, Inc. --><path d="M256 464C370.9 464 464 370.9 464 256C464 141.1 370.9 48 256 48C141.1 48 48 141.1 48 256C48 273.7 50.21 290.8 54.36 307.2C40.78 317.4 32 333.7 32 352V380C11.61 343.3 0 301 0 256C0 114.6 114.6 0 256 0C397.4 0 512 114.6 512 256C512 397.4 397.4 512 256 512C245.4 512 234.9 511.4 224.6 510.1C228.6 504.4 231.9 498.1 234.4 491.3L244.4 463.7C248.3 463.9 252.1 464 256 464V464zM268.3 307.6L237.9 318.1L172.3 303.6C163.7 301.6 158.4 292.9 160.4 284.3C162.4 275.7 171.1 270.4 179.7 272.4L276.7 295.3C284.9 297.2 292.4 300.6 299 305.1C289.1 303.1 278.5 303.7 268.3 307.6L268.3 307.6zM208.4 192C208.4 209.7 194 224 176.4 224C158.7 224 144.4 209.7 144.4 192C144.4 174.3 158.7 160 176.4 160C194 160 208.4 174.3 208.4 192zM304.4 208C304.4 190.3 318.7 176 336.4 176C354 176 368.4 190.3 368.4 208C368.4 225.7 354 240 336.4 240C318.7 240 304.4 225.7 304.4 208zM216.4 144.8C195.9 127.2 166.5 124.4 142.1 137.9L135.9 141.9C128.3 146.3 118.5 143.6 114.1 135.9C109.7 128.3 112.4 118.5 120.1 114.1L127.1 110.1C162.3 89.95 206.4 94.14 237.2 120.5L250.4 131.9C257.1 137.6 257.9 147.7 252.1 154.4C246.4 161.1 236.3 161.9 229.6 156.1L216.4 144.8zM112 400.4L279.6 337.5C291.1 332.9 305.8 339.2 310.5 351.6C315.1 363.1 308.8 377.8 296.4 382.5L230.9 407C230.8 407.4 230.7 407.8 230.6 408.2L204.3 480.4C197.4 499.4 179.4 512 159.2 512H112C85.49 512 64 490.5 64 464V352C64 338.7 74.75 328 88 328C101.3 328 112 338.7 112 352L112 400.4z"/></svg>
